X:530
T:B530-  Woodicock
Q:1/4=120
L:1/4
M:3/4
K:D dorian
A|d2d|f2d|^cA2|A2::d|\
c2B|c2d|(B3/2A/)B|G2G|\
A2A|A2d|d^c2|d2:|]

